X:1
T:Jube domne, benedicere
T:Giovanni Battista Riccio
T:1644 - 1704
T:Jube domne, benedicere
T:Ad Completorium
T:(C) Wim Looyestijn - 2016
T:(C) Wim Looyestijn - 2016
T:(C) Wim Looyestijn - 2016
T:(C) Wim Looyestijn - 2016
T:(C) Wim Looyestijn - 2016
C:Giovanni Battista Riccio
Z:(C) Wim Looyestijn - 2016
%%score 1 2 3
L:1/8
Q:1/4=160
M:4/4
K:F
V:1 treble-8 nm="MusicXML Part"
V:2 treble-8 nm="MusicXML Part"
V:3 bass nm="MusicXML Part"
V:1
 c8- | c4 F4 | G8 | F4 A4- | A4 A4 | c6 G2 | A8 | z8 | z8 | z8 | d8- | d4 A4 | =B4 c4- | c4 B4 | %14
w: Ju-|* be|dom-|ne, be-|* ne-|di- ce-|re,||||ju-|* be|dom- *||
 c8- | c8 | z8 | z8 | z4 c4- | c2 F2 G3 G | F4 c2 c2 | d4 c4 | c6 A2 | G2 F4 E2 | F16 || c6 FF | %26
w: ne,||||be-|* ne- di- ce-|re, ju- be|dom- ne,|be- ne-|di- * ce-|re.|No- cte qui-|
 G4 F4 | z4 d4- | d2 cd B4 | A2 c2 d4 | d2 c2 B2 AG | ^FGAB A4 | G2 d2 =B2 c2 | d2 e2 d3 d | %34
w: e- tam,|no-|* cte qui- e-|tam et fi-|nem per- fec- * *||tum con- ce- dat|no- bis Do- mi-|
 c2 G2 E2 F2 | G2 _A2 G3 G | F4 A4 | B6 B2 | G4 _A4 | G6 G2 | F16 || A8 | G4 A4- | A2 A2 A2 c2 | %44
w: nus, con- ce- dat|no- bis Do- mi-|nus om-|ni- po-|tens, om-|ni- po-|tens.|Fra-|tres, so-|* bri es- to-|
 =B2 c4 B2 | cGGA B4 | AAAB c4 | B4 z4 |[Q:1/4=480][Q:1/4=480][Q:1/4=480] d2 d2 d2 c2 | B3 B A4 | %50
w: |te et vi- gi- la-|te, et vi- gi- la-|te,|qui- a ad- ver-|sa- ri- us|
 d2 dc =B c2 B | c4 z4 | c2 cB A B2 A | B8 | F6 G2 | A2 B2 c4- | c2 A2 F4 | A3 B c4 | z8 | %59
w: ves- ter di- a- * bo-|lus,|ves- ter di- a- * bo-|lus|tan- quam|le- o ru-|* gi- ens|cir- cu- it,||
 A2 AG A2 F2 | E8 | A4 A2 ^F2 | G3 G E4 | z8 |[Q:1/4=160][Q:1/4=160][Q:1/4=160] c6 BA | %65
w: quae- rens quem de- vo-|ret,|cu- i re-|sis- ti- te||for- tes in|
[Q:1/4=240][Q:1/4=240][Q:1/4=240] G4 F4 | z8 | z2 A2 A2 A2 | B3 B A4 | z4 c4- | c4 B4 | B8- | %72
w: fi- de.||Tu au- tem|Do- mi- ne,|mi-|* se-|re-|
 B4 A4 | G8 | F8 || d4 c4 | B6 B2 | A16 |] %78
w: * re|no-|bis.|De- o|gra- ti-|as.|
V:2
 z8 | z8 | z8 | c8- | c4 F4 | G8 | F4 A4- | A4 A4 | c6 G2 | A8 | z8 | z8 | z4 G4- | G4 D4 | %14
w: |||Ju-|* be|dom-|ne, be-|* ne-|di- ce-|re,|||ju-|* be|
 E4 F4- | F4 E4 | F4 c4- | c2 F2 G3 G | F8 | z8 | z4 A2 A2 | B4 A4 | z4 c4- | c2 A2 G3 G | F16 || %25
w: dom- *||ne, be-|* ne- di- ce-|re,||ju- be|dom- ne,|be-|* ne- di- ce-|re.|
 z8 | z8 | z8 | z8 | z8 | z8 | z8 | z8 | z8 | z8 | z8 | z8 | z8 | z8 | z8 | z16 || F8 | E4 F4- | %43
w: ||||||||||||||||Fra-|tres, so-|
 F2 F2 F2 F2 | G2 FE D4 | C4 z DDE | F4 EEEF | G4 F4 | B2 B2 B2 A2 | G3 G ^F4 | z8 | G2 GF E F2 E | %52
w: * bri es- to-||te et vi- gi-|la- te, et vi- gi-|la- te,|qui- a ad- ver-|sa- ri- us||ves- ter di- a- * bo-|
 F8 | z4 F4- | F2 G2 A2 B2 | c6 A2 | F4 A3 B | c8 | d2 dc d2 B2 | A8 | z8 | ^c4 c2 d2 | =B3 B c4 | %63
w: lus,|tan-|* quam le- o|ru- gi-|ens cir- cu-|it,|quae- rens quem de- vo-|ret,||cu- i re-|sis- ti- te|
 c6 BA | G4 F4 | z4 z2 A2 | A2 A2 B3 B | A4 z4 | z8 | A6 A2 | G8 | F8 | E4 F4- | F4 E4 | F8 || %75
w: for- tes in|fi- de.|Tu|au- tem Do- mi-|ne,||mi- se-|re-|re|no- *||bis.|
 F4 F4 | F6 F2 | F16 |] %78
w: De- o|gra- ti-|as.|
V:3
 F,8- | F,4 D,4 | C,8 | F,,4 F,4- | F,4 D,4 | C,8 | F,,4 F,,4- | F,,4 F,,4 | C,6 C,2 | F,,8 | %10
w: ||||||||||
 B,,8- | B,,4 D,4 | G,,8- | G,,8 | C,8- | C,8 | F,,4 F,,4- | F,,2 F,,2 C,3 C, | F,,4 F,,4- | %19
w: |* X|X|||||||
 F,,2 F,,2 C,3 C, | F,,4 F,,2 F,,2 | B,,4 F,,4 | F,,6 F,,2 | C,8 | F,,16 || F,,6 F,,F,, | %26
w: |||||||
 C,4 F,,4 | z4 B,,4- | B,,2 A,,B,, G,,4 | F,,2 F,,2 B,,4 | B,,2 F,,2 G,,4 | D,8 | G,,8- | G,,8 | %34
w: |||||X|X||
 C,8- | C,8 | F,,4 F,,4 | B,,6 B,,2 | C,4 B,,4 | C,8 | F,,16 || F,,8 | C,4 F,,4- | %43
w: ||||* &|||||
 F,,2 F,,2 F,,2 A,,2 | G,,8 | C,4 G,,4 | D,4 A,,4 | G,,4 D,4 | B,,2 B,,2 B,,2 F,,2 | G,,3 G,, D,4 | %50
w: * * * ^|X|||||* * X|
 B,,2 B,,A,, G,,4 | C,8 | F,,8 | B,,8 | F,,8 | F,,8 | F,,8 | F,,8 | B,,2 B,,A,, B,,2 G,,2 | D,8 | %60
w: * * * X||||||||||
 A,,8 | A,,4 A,,2 D,2 | G,,3 G,, C,4 | F,2 E,D, C,4- | C,4 F,,4 | C,4 F,,2 F,,2 | %66
w: X||||||
 F,,2 F,,2 B,,3 B,, | F,,2 F,,2 F,,2 F,,2 | B,,3 B,, F,,4 | F,6 F,2 | _E,4 E,4 | %71
w: ||||^ %|
"^Editorial note:\nThe text \"Jube domne\" has erroneously been changed into\n\"Jube Domine\" in the printed part books of the source by hand, \nwith corresponding adjustemnt of note values. The present \nedition has the correct text as given in the Liber Usualis. \nThe call for blessing is made to the leader of the service \n(domnus: lord) rather than to God (Dominus: Lord)." D,8 | %72
w: ^|
 C,8- | C,8 | F,,8 || B,,4 A,,4 | B,,6 B,,2 | F,,16 |] %78
w: ||||||

